apps/mobile/assets/icons/phosphor/text-strikethrough.svg

<svg
  height="32"
  viewBox="0 0 256 256"
  width="32"
  xmlns="http://www.w3.org/2000/svg"
>
  <path
    d="m224 128a8 8 0 0 1 -8 8h-40.07c9.19 7.11 16.07 17.2 16.07 32 0 13.34-7 25.7-19.75 34.79-11.92 8.52-27.64 13.21-44.25 13.21s-32.33-4.69-44.25-13.21c-12.75-9.09-19.75-21.45-19.75-34.79a8 8 0 0 1 16 0c0 17.35 22 32 48 32s48-14.65 48-32c0-14.85-10.54-23.58-38.77-32h-97.23a8 8 0 0 1 0-16h176a8 8 0 0 1 8 8zm-147.67-24a8 8 0 0 0 7.61-10.49 17.3 17.3 0 0 1 -.83-5.51c0-18.24 19.3-32 44.89-32 18.84 0 34.16 7.42 41 19.85a8 8 0 0 0 14-7.7c-9.67-17.63-30.23-28.15-55-28.15-34.71 0-60.89 20.63-60.89 48a33.73 33.73 0 0 0 1.62 10.49 8 8 0 0 0 7.6 5.51z"
  />
</svg>

<svg
  fill="#000"
  height="32"
  viewBox="0 0 256 256"
  width="32"
  xmlns="http://www.w3.org/2000/svg"
>
  <path
    d="M224,128a8,8,0,0,1-8,8H175.93c9.19,7.11,16.07,17.2,16.07,32,0,13.34-7,25.7-19.75,34.79C160.33,211.31,144.61,216,128,216s-32.33-4.69-44.25-13.21C71,193.7,64,181.34,64,168a8,8,0,0,1,16,0c0,17.35,22,32,48,32s48-14.65,48-32c0-14.85-10.54-23.58-38.77-32H40a8,8,0,0,1,0-16H216A8,8,0,0,1,224,128ZM76.33,104a8,8,0,0,0,7.61-10.49A17.3,17.3,0,0,1,83.11,88c0-18.24,19.3-32,44.89-32,18.84,0,34.16,7.42,41,19.85a8,8,0,0,0,14-7.7C173.33,50.52,152.77,40,128,40,93.29,40,67.11,60.63,67.11,88a33.73,33.73,0,0,0,1.62,10.49A8,8,0,0,0,76.33,104Z"
  />
</svg>
